groups/phosphorus/phosphorothiolate.svg

<?xml version='1.0' encoding='iso-8859-1'?>
<svg version='1.1' baseProfile='full'
              xmlns='http://www.w3.org/2000/svg'
                      xmlns:rdkit='http://www.rdkit.org/xml'
                      xmlns:xlink='http://www.w3.org/1999/xlink'
                  xml:space='preserve'
width='256px' height='256px' viewBox='0 0 256 256'>
<!-- END OF HEADER -->
<rect style='opacity:1.0;fill:#FFFFFF;stroke:none' width='256.0' height='256.0' x='0.0' y='0.0'> </rect>
<path class='bond-0 atom-0 atom-1' d='M 72.2,69.6 L 111.6,108.7' style='fill:none;fill-rule:evenodd;stroke:#000000;stroke-width:2.0px;stroke-linecap:butt;stroke-linejoin:miter;stroke-opacity:1' />
<path class='bond-1 atom-1 atom-2' d='M 144.5,112.5 L 169.0,87.8' style='fill:none;fill-rule:evenodd;stroke:#000000;stroke-width:2.0px;stroke-linecap:butt;stroke-linejoin:miter;stroke-opacity:1' />
<path class='bond-1 atom-1 atom-2' d='M 136.4,104.5 L 160.9,79.8' style='fill:none;fill-rule:evenodd;stroke:#000000;stroke-width:2.0px;stroke-linecap:butt;stroke-linejoin:miter;stroke-opacity:1' />
<path class='bond-2 atom-1 atom-3' d='M 140.6,137.4 L 165.5,162.1' style='fill:none;fill-rule:evenodd;stroke:#000000;stroke-width:2.0px;stroke-linecap:butt;stroke-linejoin:miter;stroke-opacity:1' />
<path class='bond-3 atom-1 atom-4' d='M 111.6,137.7 L 87.0,162.4' style='fill:none;fill-rule:evenodd;stroke:#000000;stroke-width:2.0px;stroke-linecap:butt;stroke-linejoin:miter;stroke-opacity:1' />
<path class='atom-1' d='M45.4523,96.5749 C47.4737,98.5774 50.1437,95.8823 48.1224,93.8798 C46.1011,91.8773 48.7711,89.1822 50.7924,91.1847 C52.8137,93.1873 55.4838,90.4922 53.4625,88.4896 C51.4412,86.4871 54.1112,83.792 56.1325,85.7946 C58.1538,87.7971 60.8239,85.102 58.8026,83.0995 C56.7812,81.0969 59.4513,78.4018 61.4726,80.4044 C63.4939,82.4069 66.164,79.7118 64.1427,77.7093 C62.1213,75.7068 64.7914,73.0117 66.8127,75.0142 C68.834,77.0168 71.5041,74.3217 69.4827,72.3191 C67.4614,70.3166 70.1315,67.6215 72.1528,69.624 C74.1741,71.6266 76.8442,68.9315 74.8228,66.929 C72.8015,64.9264 75.4716,62.2313 77.4929,64.2339 C79.5142,66.2364 82.1842,63.5413 80.1629,61.5388 C78.1416,59.5363 80.8117,56.8412 82.833,58.8437 C84.8543,60.8462 87.5243,58.1512 85.503,56.1486 C83.4817,54.1461 86.1518,51.451 88.1731,53.4535 C90.1944,55.4561 92.8644,52.761 90.8431,50.7585 C88.8218,48.7559 91.4918,46.0608 93.5132,48.0634 C95.5345,50.0659 98.2045,47.3708 96.1832,45.3683 C94.1619,43.3657 96.8319,40.6707 98.8533,42.6732' style='fill:none;stroke:#7F7F7F;stroke-width:2.0px;stroke-linecap:butt;stroke-linejoin:miter;stroke-opacity:1' />
<text x='114.1' y='143.0' class='atom-1' style='font-size:40px;font-style:normal;font-weight:normal;fill-opacity:1;stroke:none;font-family:sans-serif;text-anchor:start;fill:#000000' >P</text>
<text x='167.5' y='89.1' class='atom-2' style='font-size:40px;font-style:normal;font-weight:normal;fill-opacity:1;stroke:none;font-family:sans-serif;text-anchor:start;fill:#000000' >S</text>
<text x='168.0' y='196.4' class='atom-3' style='font-size:40px;font-style:normal;font-weight:normal;fill-opacity:1;stroke:none;font-family:sans-serif;text-anchor:start;fill:#000000' >C</text>
<text x='195.6' y='196.4' class='atom-3' style='font-size:40px;font-style:normal;font-weight:normal;fill-opacity:1;stroke:none;font-family:sans-serif;text-anchor:start;fill:#000000' >H</text>
<text x='223.2' y='212.4' class='atom-3' style='font-size:26px;font-style:normal;font-weight:normal;fill-opacity:1;stroke:none;font-family:sans-serif;text-anchor:start;fill:#000000' >3</text>
<text x='20.2' y='196.9' class='atom-4' style='font-size:40px;font-style:normal;font-weight:normal;fill-opacity:1;stroke:none;font-family:sans-serif;text-anchor:start;fill:#000000' >H</text>
<text x='47.8' y='212.9' class='atom-4' style='font-size:26px;font-style:normal;font-weight:normal;fill-opacity:1;stroke:none;font-family:sans-serif;text-anchor:start;fill:#000000' >3</text>
<text x='60.7' y='196.9' class='atom-4' style='font-size:40px;font-style:normal;font-weight:normal;fill-opacity:1;stroke:none;font-family:sans-serif;text-anchor:start;fill:#000000' >C</text>
</svg>

<svg height="256" viewBox="0 0 256 256" width="256" xmlns="http://www.w3.org/2000/svg"><path d="m0 0h256v256h-256z" fill="#fff"/><path d="m72.2 69.6 39.4 39.1" fill="none" stroke="#000" stroke-width="2"/><path d="m144.5 112.5 24.5-24.7" fill="none" stroke="#000" stroke-width="2"/><path d="m136.4 104.5 24.5-24.7" fill="none" stroke="#000" stroke-width="2"/><path d="m140.6 137.4 24.9 24.7" fill="none" stroke="#000" stroke-width="2"/><path d="m111.6 137.7-24.6 24.7" fill="none" stroke="#000" stroke-width="2"/><path d="m45.452 96.575c2.022 2.002 4.692-.693 2.67-2.695-2.021-2.003.649-4.698 2.67-2.695 2.022 2.002 4.692-.693 2.671-2.695-2.022-2.003.648-4.698 2.67-2.695 2.021 2.002 4.691-.693 2.67-2.695-2.022-2.003.648-4.698 2.67-2.696 2.021 2.003 4.691-.692 2.67-2.695-2.022-2.002.648-4.697 2.67-2.695 2.021 2.003 4.691-.692 2.67-2.695-2.022-2.002.649-4.697 2.67-2.695 2.021 2.003 4.691-.692 2.67-2.695s.649-4.698 2.67-2.695c2.021 2.002 4.691-.693 2.67-2.695-2.021-2.003.649-4.698 2.67-2.695 2.021 2.002 4.691-.693 2.67-2.695-2.021-2.003.649-4.698 2.67-2.695 2.021 2.002 4.691-.693 2.67-2.695-2.021-2.003.649-4.698 2.67-2.696 2.022 2.003 4.692-.692 2.67-2.695-2.021-2.002.649-4.697 2.67-2.695" fill="none" stroke="#7f7f7f" stroke-width="2"/><g font-family="sans-serif"><text font-size="40" x="114.1" y="143">P</text><text font-size="40" x="167.5" y="89.1">S</text><text font-size="40" x="168" y="196.4">C</text><text font-size="40" x="195.6" y="196.4">H</text><text font-size="26" x="223.2" y="212.4">3</text><text font-size="40" x="20.2" y="196.9">H</text><text font-size="26" x="47.8" y="212.9">3</text><text font-size="40" x="60.7" y="196.9">C</text></g></svg>
